X: 114
T: Old Ways best
%R: march, reel
B: Daniel Wright "Wright's Compleat Collection of Celebrated Country Dances" 1740 p.57
S: http://library.efdss.org/cgi-bin/dancebooks.cgi
Z: 2014 John Chambers <jc:trillian.mit.edu>
N: Repeats added to match the dance phrasing.
M: C|
L: 1/8
K: Gm
% - - - - - - - - - - - - - - - - - - - - - - - - -
|:\
g2G2 g2fe | d2d2 d4 | e2E2 e2dc | B2B2 B4 | ABc2 B2G2 | ABc2 B2G2 |
d2D2 B2AG | ^FGA2 A4 :||: Bcd2 d2cB | cde2 e4 | ABc2
c2BA | Bcd2 d4 | g2G2 g2fe | d2D2 d2cB | A2G2 A2G^F | G4- G4 :|
% - - - - - - - - - - - - - - - - - - - - - - - - -
%%begintext align
%% The 1st Man and 2d Wo. go back and clap, the
%% 1st Man cast down, 2d Wo. cast up at the same
%% time .| 2d Man and 1st Wo. the same :| 1st Cu.
%% lead thro' 2d Cu. right and left half round .| 1st
%% Cu. lead thro' 3d Cu. and turn in 2d Cu. Place :#:
%% 1st Cu. hands round with 2d and 3d We. and foot
%% it .| do the same with 2d and 3d Men :| 1st Man
%% cross over below 3d Wo. 1st Wo. the same time
%% cross up above 2d Man and both cast into 2d
%% Cu. Place .| 1st Man cross 2d Wo. 1st Wo.
%% the same below 3d Man :|
%%endtext
% - - - - - - - - - - - - - - - - - - - - - - - - -
%%sep 2 4 300
